product-images/monogram-large.svg

<svg viewBox="0 0 50 42" xmlns="http://www.w3.org/2000/svg"><g fill="#444"><path d="m44 0h-2v19l2 4.387z"/><path d="m31 0h-2l-6.748 22.713 2.998 6.787 2.116-5.5h9.261l8.582 18h4.791v-1zm-2.041 19 2.116-6.643 3.167 6.643z"/><path d="m10.685 1.901c-.467-.996-1.5-1.899-2.601-1.901h-3.588l19.948 42h3.556v-2z"/><path d="m.504 0 19.799 42h2.184l-19.582-42z"/><path d="m27.387 0-2.363 1.764-5.024 16.236 1.25 3z"/><path d="m48.5 0h-3.5v25.412l5 10.799v-34.711c0-.828-.671-1.5-1.5-1.5z"/></g></svg>

<svg xmlns="http://www.w3.org/2000/svg" viewBox="0 0 50 42">
  <polygon fill="#444444" points="44,0 42,0 42,19 44,23.387 "/>
  <path fill="#444444" d="M31,0h-2l-6.748,22.713L25.25,29.5l2.116-5.5h9.261l8.582,18H50v-1L31,0z M28.959,19l2.116-6.643L34.242,19
    H28.959z"/>
  <path fill="#444444" d="M10.685,1.901C10.218,0.905,9.185,0.002,8.084,0H4.496l19.948,42H28v-2L10.685,1.901z"/>
  <polygon fill="#444444" points="0.504,0 20.303,42 22.487,42 2.905,0 "/>
  <polygon fill="#444444" points="27.387,0 25.024,1.764 20,18 21.25,21 "/>
  <path fill="#444444" d="M48.5,0H45v25.412l5,10.799V1.5C50,0.672,49.329,0,48.5,0z"/>
</svg>
